X:1
T:Heart Ever Faithful, 78.76 D
T:Heart Ever Faithful, 78.76 D
T:Adapted from Johann Sebastian Bach
T:Public Domain Courtesy of the Cyber Hymnal™
C:Adapted from Johann Sebastian Bach
Z:Public Domain
Z:Courtesy of the Cyber Hymnal™
%%score ( 1 2 ) ( 3 4 )
L:1/8
Q:1/4=115
M:4/4
K:C
V:1 treble 
V:2 treble 
V:3 bass 
V:4 bass 
V:1
 G2 | [EG]2 (EF) [CG]2 [Ec]2 | [DB]2 [CA]2 [B,G]2 [DG]2 | [CG]2 EF [CG]2 [Ec]2 | %4
 [DB]2 [CA]2 [B,G]2 [FG]2 | [Ec]2 (ed) [Gc]2 G2 | A3 ^G [DA]2 [CD]2 | [B,D]2 [CE]2 [B,F]2 [DG]2 | %8
 [CE]6 [FG]2 | [EG]2 (EF) [CG]2 [Ec]2 | [DF]2 [CE]2 [B,D]2 [DG]2 | [CG]2 EF [CG]2 [Ec]2 | %12
 [DF]2 [CE]2 [B,D]2 [FG]2 | [Ec]2 (ed) [Gc]2 G2 | A3 ^G [FA]2 (Bc) | E2 [B,D]C [B,D]2 B2 | [Ec]6 |] %17
V:2
 G2 | x2 C2 x4 | x8 | x2 C2 x4 | x8 | x2 G2 x G2 x | F4 x4 | x8 | x8 | x2 C2 x4 | x8 | x2 C2 x4 | %12
 x8 | x2 G2 x G2 x | F4 F2 x2 | E2 x2 DF x2 | x6 |] %17
V:3
 G,2 | [C,G,]2 G,2 [E,G,]2 [C,G,]2 | F,4 [F,G,]2 [F,B,]2 | C2 G,2 [E,G,]2 [C,G,]2 | %4
 [D,F,]2 [G,,F,]2 [F,G,]2 [D,B,]2 | [C,C]2 (C[B,D]) [CE]2 [E,C]2 | [F,C]4 [F,A,]2 [F,A,]2 | %7
 [F,G,]2 [E,G,]2 [D,G,]2 [B,,G,]2 | [C,G,]6 [G,B,]2 | [C,C]2 G,2 [E,G,]2 [C,G,]2 | %10
 G,4 [F,G,]2 [F,B,]2 | C2 G,2 [E,G,]2 [C,G,]2 | [B,,G,]2 [G,,G,]2 [F,G,]2 [D,B,]2 | %13
 [C,C]2 (C[B,D]) [CE]2 [E,C]2 | C3 B, [F,C]2 (^G,A,) | [G,C]2 [G,,G,]2 [G,,G,]2 [G,,G,]2 | %16
 [C,G,]6 |] %17
V:4
 G,2 | x2 (C,D,) x4 | D,2 G,,2 x4 | (E,D,) C,D, x4 | x8 | x2 C x5 | x8 | x8 | x8 | x2 (C,D,) x4 | %10
 B,,2 G,,2 x4 | (E,D,) C,D, x4 | x8 | x8 | F,4 F,2 x2 | x8 | x6 |] %17

